X:146
T:Shepherdess, The
T:Nighean nan Caorach
R:Jig
S:Simon Fraser Collection
N:No.224
O:Scottish
M:12/8
L:1/8
K:A
D|CFA c2B AFF ~F2G|(AG)A c2B AFE ~E2D|
CFA c2B AFF ~F2a|f>ed c2B AFD D2:|
f|e2d c2B A2B ~c2a|e2d c2B AFF ~F2a|e2d c2B A2B c2A|
B>AB c2B FAA E2a|e2d c2B A2B ~c2a|e2d c2B AFF ~F2 f/g/|
agf edc (B>AB) cea|f>ed c2 B AFF E2||

